X: 1662
T: Gilmore's Hornpipe
R: hornpipe, reel
%S: s:2 b:12(6+6)
B: O'Neill's 1850 #1662
Z: Compacted via repeats and multiple endings [JC]
M: 2/4
L: 1/16
K: G
BA \
| G2(GA) BdGB | cdec dgGB |[1,3 caBg AgGe | Fdfe dc :|[2,4 cdef gdec | B2G2 G2 :|
|: (Bc) \
| dgBd GBdg | fage dfac' | bgaf [1,3 gedB | (ce)A2 A2 :|[1,2 gedc | B2G2 G2 :|
